X: 1
T: Arctic Winds, The
M: 6/8
L: 1/8
R: jig
K: Dmaj
E|:FAG FAG|FDE FAd|BFF Bcd|BGB dcB|
AdG FAG|FDE FAd|BGB cde|1 f/2g/2ag fdG:|2 f/2g/2ag fde||
|:fed a2 A|def fed|ecA a2 A|cde ABc|
~B3 deg|fbb bfg|~f3 fed|1 cdA def:|2 cdA GFE||&quot;Ending&quot;|D6||
